gtk-icons/Papirus-GTK/48x48/apps/qgo.svg

<?xml version="1.0" encoding="UTF-8" standalone="no"?>
<!-- Created with Inkscape (http://www.inkscape.org/) -->
<svg id="svg2817" xmlns:rdf="http://www.w3.org/1999/02/22-rdf-syntax-ns#" xmlns="http://www.w3.org/2000/svg" height="48" width="48" version="1.0" xmlns:cc="http://creativecommons.org/ns#" xmlns:xlink="http://www.w3.org/1999/xlink" xmlns:dc="http://purl.org/dc/elements/1.1/">
 <metadata id="metadata57">
  <rdf:RDF>
   <cc:Work rdf:about="">
    <dc:format>image/svg+xml</dc:format>
    <dc:type rdf:resource="http://purl.org/dc/dcmitype/StillImage"/>
    <dc:title/>
   </cc:Work>
  </rdf:RDF>
 </metadata>
 <defs id="defs2819">
  <linearGradient id="linearGradient4144">
   <stop id="stop4148" stop-opacity="0" offset="0"/>
   <stop id="stop4146" offset="1"/>
  </linearGradient>
  <linearGradient id="linearGradient4150" y2="-24" xlink:href="#linearGradient4144" gradientUnits="userSpaceOnUse" x2="-24" y1="-24" x1="-44"/>
  <linearGradient id="linearGradient4156" y2="-24" xlink:href="#linearGradient4144" gradientUnits="userSpaceOnUse" x2="-24" gradientTransform="scale(-1)" y1="-24" x1="-44"/>
 </defs>
 <rect id="rect4203-6" transform="matrix(0,-1,-1,0,0,0)" rx="2" ry="2" height="40" width="40" y="-44" x="-44" fill="#66a6de"/>
 <path id="rect4592" opacity=".2" d="m6 4c-1.108 0-2 0.892-2 2v1c0-1.108 0.892-2 2-2h36c1.108 0 2 0.892 2 2v-1c0-1.108-0.892-2-2-2h-36z" fill="#fff"/>
 <path id="path4597" opacity=".3" d="m6 44c-1.108 0-2-0.892-2-2v-1c0 1.108 0.892 2 2 2h36c1.108 0 2-0.892 2-2v1c0 1.108-0.892 2-2 2h-36z"/>
 <g id="g4139">
  <path id="path4183" fill="#fff" d="m22 15a7 7 0 0 1 -7 7 7 7 0 0 1 -7 -7 7 7 0 0 1 7 -7 7 7 0 0 1 7 7z"/>
  <path id="path4194" d="m22 34a7 7 0 0 1 -7 7 7 7 0 0 1 -7 -7 7 7 0 0 1 7 -7 7 7 0 0 1 7 7z" fill="#4d4d4d"/>
 </g>
 <g id="g4143" transform="matrix(1,0,0,-1,18,49)">
  <path id="path4145" fill="#fff" d="m22 15a7 7 0 0 1 -7 7 7 7 0 0 1 -7 -7 7 7 0 0 1 7 -7 7 7 0 0 1 7 7z"/>
  <path id="path4147" fill="#4d4d4d" d="m22 34a7 7 0 0 1 -7 7 7 7 0 0 1 -7 -7 7 7 0 0 1 7 -7 7 7 0 0 1 7 7z"/>
 </g>
 <path id="rect4141" opacity=".1" d="m-42-44h18v40h-18c-1.108 0-2-0.892-2-2v-36c0-1.108 0.892-2 2-2z" transform="matrix(0,-1,-1,0,0,0)" fill="url(#linearGradient4150)"/>
 <path id="path4154" opacity=".1" d="m42 44h-18v-40h18c1.108 0 2 0.892 2 2v36c0 1.108-0.892 2-2 2z" fill="url(#linearGradient4156)"/>
</svg>

<?xml version="1.0" encoding="UTF-8" standalone="no"?>
<!-- Created with Inkscape (http://www.inkscape.org/) -->

<svg
   xmlns:dc="http://purl.org/dc/elements/1.1/"
   xmlns:cc="http://creativecommons.org/ns#"
   xmlns:rdf="http://www.w3.org/1999/02/22-rdf-syntax-ns#"
   xmlns:svg="http://www.w3.org/2000/svg"
   xmlns="http://www.w3.org/2000/svg"
   xmlns:xlink="http://www.w3.org/1999/xlink"
   xmlns:sodipodi="http://sodipodi.sourceforge.net/DTD/sodipodi-0.dtd"
   xmlns:inkscape="http://www.inkscape.org/namespaces/inkscape"
   id="svg2817"
   height="48"
   width="48"
   version="1.0"
   inkscape:version="0.91 r"
   sodipodi:docname="qgo.svg">
  <sodipodi:namedview
     pagecolor="#ffffff"
     bordercolor="#666666"
     borderopacity="1"
     objecttolerance="10"
     gridtolerance="10"
     guidetolerance="10"
     inkscape:pageopacity="0"
     inkscape:pageshadow="2"
     inkscape:window-width="1600"
     inkscape:window-height="846"
     id="namedview20"
     showgrid="false"
     inkscape:zoom="1"
     inkscape:cx="13.681324"
     inkscape:cy="24"
     inkscape:window-x="0"
     inkscape:window-y="26"
     inkscape:window-maximized="1"
     inkscape:current-layer="svg2817" />
  <metadata
     id="metadata57">
    <rdf:RDF>
      <cc:Work
         rdf:about="">
        <dc:format>image/svg+xml</dc:format>
        <dc:type
           rdf:resource="http://purl.org/dc/dcmitype/StillImage" />
        <dc:title />
      </cc:Work>
    </rdf:RDF>
  </metadata>
  <defs
     id="defs2819">
    <linearGradient
       inkscape:collect="always"
       id="linearGradient4144">
      <stop
         id="stop4148"
         offset="0"
         style="stop-color:#000000;stop-opacity:0" />
      <stop
         id="stop4146"
         offset="1"
         style="stop-color:#000000;stop-opacity:1" />
    </linearGradient>
    <linearGradient
       inkscape:collect="always"
       xlink:href="#linearGradient4144"
       id="linearGradient4150"
       x1="-44"
       y1="-24"
       x2="-24"
       y2="-24"
       gradientUnits="userSpaceOnUse" />
    <linearGradient
       inkscape:collect="always"
       xlink:href="#linearGradient4144"
       id="linearGradient4156"
       gradientUnits="userSpaceOnUse"
       x1="-44"
       y1="-24"
       x2="-24"
       y2="-24"
       gradientTransform="scale(-1,-1)" />
  </defs>
  <rect
     style="fill:#66a6de;fill-opacity:1"
     x="-44"
     y="-44"
     width="40"
     height="40"
     ry="2"
     rx="2"
     transform="matrix(0,-1,-1,0,0,0)"
     id="rect4203-6" />
  <path
     style="opacity:0.2;fill:#ffffff"
     inkscape:connector-curvature="0"
     d="M 6,4 C 4.892,4 4,4.892 4,6 L 4,7 C 4,5.892 4.892,5 6,5 l 36,0 c 1.108,0 2,0.892 2,2 L 44,6 C 44,4.892 43.108,4 42,4 L 6,4 Z"
     id="rect4592" />
  <path
     style="opacity:0.3"
     inkscape:connector-curvature="0"
     d="M 6,44 C 4.892,44 4,43.108 4,42 l 0,-1 c 0,1.108 0.892,2 2,2 l 36,0 c 1.108,0 2,-0.892 2,-2 l 0,1 c 0,1.108 -0.892,2 -2,2 L 6,44 Z"
     id="path4597" />
  <g
     id="g4139">
    <path
       inkscape:connector-curvature="0"
       d="m 22,15 a 7,7 0 0 1 -7,7 7,7 0 0 1 -7,-7 7,7 0 0 1 7,-7 7,7 0 0 1 7,7 z"
       id="path4183"
       style="fill:#ffffff" />
    <path
       inkscape:connector-curvature="0"
       d="m 22,34 a 7,7 0 0 1 -7,7 7,7 0 0 1 -7,-7 7,7 0 0 1 7,-7 7,7 0 0 1 7,7 z"
       id="path4194"
       style="fill:#4d4d4d;fill-opacity:1" />
  </g>
  <g
     id="g4143"
     transform="matrix(1,0,0,-1,18,49)">
    <path
       style="fill:#ffffff"
       id="path4145"
       d="m 22,15 a 7,7 0 0 1 -7,7 7,7 0 0 1 -7,-7 7,7 0 0 1 7,-7 7,7 0 0 1 7,7 z"
       inkscape:connector-curvature="0" />
    <path
       style="fill:#4d4d4d;fill-opacity:1"
       id="path4147"
       d="m 22,34 a 7,7 0 0 1 -7,7 7,7 0 0 1 -7,-7 7,7 0 0 1 7,-7 7,7 0 0 1 7,7 z"
       inkscape:connector-curvature="0" />
  </g>
  <path
     transform="matrix(0,-1,-1,0,0,0)"
     style="fill:url(#linearGradient4150);fill-opacity:1;opacity:0.1"
     d="m -42,-44 18,0 0,40 -18,0 c -1.108,0 -2,-0.892 -2,-2 l 0,-36 c 0,-1.108 0.892,-2 2,-2 z"
     id="rect4141"
     inkscape:connector-curvature="0"
     sodipodi:nodetypes="sccssss" />
  <path
     sodipodi:nodetypes="sccssss"
     inkscape:connector-curvature="0"
     id="path4154"
     d="m 42,44 -18,0 0,-40.0000005 18,0 c 1.108,0 2,0.892 2,2 L 44,42 c 0,1.108 -0.892,2 -2,2 z"
     style="fill:url(#linearGradient4156);fill-opacity:1;opacity:0.1" />
</svg>
